Numix-Circle/48x48/apps/SoapUI.svg

<?xml version="1.0" encoding="UTF-8" standalone="no"?>
<svg
   xmlns:dc="http://purl.org/dc/elements/1.1/"
   xmlns:cc="http://creativecommons.org/ns#"
   xmlns:rdf="http://www.w3.org/1999/02/22-rdf-syntax-ns#"
   xmlns:svg="http://www.w3.org/2000/svg"
   xmlns="http://www.w3.org/2000/svg"
   xmlns:xlink="http://www.w3.org/1999/xlink"
   xmlns:sodipodi="http://sodipodi.sourceforge.net/DTD/sodipodi-0.dtd"
   xmlns:inkscape="http://www.inkscape.org/namespaces/inkscape"
   viewBox="0 0 48 48"
   id="svg2"
   version="1.1"
   inkscape:version="0.48.5 r10040"
   width="100%"
   height="100%"
   sodipodi:docname="SoapUI.svg">
  <metadata
     id="metadata61">
    <rdf:RDF>
      <cc:Work
         rdf:about="">
        <dc:format>image/svg+xml</dc:format>
        <dc:type
           rdf:resource="http://purl.org/dc/dcmitype/StillImage" />
        <dc:title />
      </cc:Work>
    </rdf:RDF>
  </metadata>
  <sodipodi:namedview
     pagecolor="#ffffff"
     bordercolor="#666666"
     borderopacity="1"
     objecttolerance="10"
     gridtolerance="10"
     guidetolerance="10"
     inkscape:pageopacity="0"
     inkscape:pageshadow="2"
     inkscape:window-width="1280"
     inkscape:window-height="998"
     id="namedview59"
     showgrid="false"
     inkscape:zoom="11.313708"
     inkscape:cx="27.685858"
     inkscape:cy="17.890987"
     inkscape:window-x="0"
     inkscape:window-y="0"
     inkscape:window-maximized="1"
     inkscape:current-layer="svg2">
    <inkscape:grid
       type="xygrid"
       id="grid3049" />
  </sodipodi:namedview>
  <defs
     id="defs4">
    <linearGradient
       id="linearGradient3770">
      <stop
         style="stop-color:#6f91ba;stop-opacity:1;"
         offset="0"
         id="stop3772" />
      <stop
         style="stop-color:#7c9bc0;stop-opacity:1;"
         offset="1"
         id="stop3774" />
    </linearGradient>
    <linearGradient
       id="linearGradient3764"
       x1="1"
       x2="47"
       gradientUnits="userSpaceOnUse"
       gradientTransform="matrix(0,-1,1,0,-1.5e-6,47.999998)">
      <stop
         stop-color="#6086b4"
         stop-opacity="1"
         id="stop7"
         offset="0"
         style="stop-color:#6e90ba;stop-opacity:1;" />
      <stop
         offset="1"
         stop-color="#6e90bb"
         stop-opacity="1"
         id="stop9"
         style="stop-color:#7b9ac1;stop-opacity:1;" />
    </linearGradient>
    <clipPath
       id="clipPath-780220428">
      <g
         transform="translate(0,-1004.3622)"
         id="g12">
        <path
           d="m -24 13 c 0 1.105 -0.672 2 -1.5 2 -0.828 0 -1.5 -0.895 -1.5 -2 0 -1.105 0.672 -2 1.5 -2 0.828 0 1.5 0.895 1.5 2 z"
           transform="matrix(15.333333,0,0,11.5,414.99999,878.8622)"
           fill="#1890d0"
           id="path14" />
      </g>
    </clipPath>
    <clipPath
       id="clipPath-787446318">
      <g
         transform="translate(0,-1004.3622)"
         id="g17">
        <path
           d="m -24 13 c 0 1.105 -0.672 2 -1.5 2 -0.828 0 -1.5 -0.895 -1.5 -2 0 -1.105 0.672 -2 1.5 -2 0.828 0 1.5 0.895 1.5 2 z"
           transform="matrix(15.333333,0,0,11.5,414.99999,878.8622)"
           fill="#1890d0"
           id="path19" />
      </g>
    </clipPath>
    <linearGradient
       inkscape:collect="always"
       xlink:href="#linearGradient3770"
       id="linearGradient3776"
       x1="1"
       y1="24"
       x2="47"
       y2="24"
       gradientUnits="userSpaceOnUse"
       gradientTransform="matrix(0,-1,1,0,0,48)" />
  </defs>
  <g
     id="g21">
    <path
       d="m 36.31 5 c 5.859 4.062 9.688 10.831 9.688 18.5 c 0 12.426 -10.07 22.5 -22.5 22.5 c -7.669 0 -14.438 -3.828 -18.5 -9.688 c 1.037 1.822 2.306 3.499 3.781 4.969 c 4.085 3.712 9.514 5.969 15.469 5.969 c 12.703 0 23 -10.298 23 -23 c 0 -5.954 -2.256 -11.384 -5.969 -15.469 c -1.469 -1.475 -3.147 -2.744 -4.969 -3.781 z m 4.969 3.781 c 3.854 4.113 6.219 9.637 6.219 15.719 c 0 12.703 -10.297 23 -23 23 c -6.081 0 -11.606 -2.364 -15.719 -6.219 c 4.16 4.144 9.883 6.719 16.219 6.719 c 12.703 0 23 -10.298 23 -23 c 0 -6.335 -2.575 -12.06 -6.719 -16.219 z"
       opacity="0.05"
       id="path23" />
    <path
       d="m 41.28 8.781 c 3.712 4.085 5.969 9.514 5.969 15.469 c 0 12.703 -10.297 23 -23 23 c -5.954 0 -11.384 -2.256 -15.469 -5.969 c 4.113 3.854 9.637 6.219 15.719 6.219 c 12.703 0 23 -10.298 23 -23 c 0 -6.081 -2.364 -11.606 -6.219 -15.719 z"
       opacity="0.1"
       id="path25" />
    <path
       d="m 31.25 2.375 c 8.615 3.154 14.75 11.417 14.75 21.13 c 0 12.426 -10.07 22.5 -22.5 22.5 c -9.708 0 -17.971 -6.135 -21.12 -14.75 a 23 23 0 0 0 44.875 -7 a 23 23 0 0 0 -16 -21.875 z"
       opacity="0.2"
       id="path27" />
  </g>
  <path
     inkscape:connector-curvature="0"
     style="fill:url(#linearGradient3776);fill-opacity:1"
     id="path31"
     d="M 1,24 C 1,11.297 11.297,1 24,1 36.703,1 47,11.297 47,24 47,36.703 36.703,47 24,47 11.297,47 1,36.703 1,24 z" />
  <g
     id="g33" />
  <g
     id="g55">
    <path
       d="m 40.03 7.531 c 3.712 4.084 5.969 9.514 5.969 15.469 0 12.703 -10.297 23 -23 23 c -5.954 0 -11.384 -2.256 -15.469 -5.969 4.178 4.291 10.01 6.969 16.469 6.969 c 12.703 0 23 -10.298 23 -23 0 -6.462 -2.677 -12.291 -6.969 -16.469 z"
       opacity="0.1"
       id="path57" />
  </g>
  <path
     style="fill:#000000;fill-opacity:0.11764706;fill-rule:nonzero;stroke:none"
     d="m 24.999856,10.280856 c -0.511238,0 -1.014513,0.170763 -1.40625,0.5625 l -9.53125,9.53125 -3.21875,3.21875 c -0.783475,0.783474 -0.783475,2.029026 0,2.8125 l 6.03125,6.03125 6.125,6.125 0.59375,0.59375 c 0.0839,0.0839 0.186882,0.157965 0.28125,0.21875 0.012,0.0084 0.01911,0.02319 0.03125,0.03125 0.08286,0.05078 0.162228,0.08337 0.25,0.125 0.09402,0.04459 0.182761,0.09594 0.28125,0.125 0.450837,0.13811 0.940234,0.102341 1.375,-0.09375 0.06779,-0.03057 0.122638,-0.08638 0.1875,-0.125 0.137051,-0.08487 0.285292,-0.160292 0.40625,-0.28125 l 0.75,-0.75 9.65625,-9.65625 2.34375,-2.34375 c 0.783474,-0.783474 0.783474,-2.029026 0,-2.8125 l -8.0625,-8.0625 -4.6875,-4.6875 c -0.391737,-0.391737 -0.895012,-0.5625 -1.40625,-0.5625 z"
     id="path3005"
     inkscape:connector-curvature="0" />
  <path
     style="fill:#00578e;fill-opacity:1;fill-rule:nonzero;stroke:none"
     d="M 24.96875 13.75 C 23.171862 13.750024 21.828113 14.005232 20.96875 14.5 C 20.109365 14.994815 19.68749 15.770856 19.6875 16.8125 C 19.68749 17.59377 19.989573 18.213561 20.5625 18.65625 C 21.148426 19.085956 22.1953 19.437519 23.71875 19.75 L 26.90625 20.40625 C 30.148417 21.057309 32.44529 22.046891 33.8125 23.375 C 34.926793 24.457487 35.606384 25.923663 35.8125 27.75 L 38.15625 25.40625 C 38.939724 24.622776 38.939724 23.377224 38.15625 22.59375 L 30.09375 14.53125 C 29.823782 14.456371 29.548807 14.376536 29.28125 14.3125 C 27.757795 13.947941 26.3229 13.750024 24.96875 13.75 z M 13.0625 19.375 L 9.84375 22.59375 C 9.0602757 23.377224 9.0602757 24.622776 9.84375 25.40625 L 15.875 31.4375 C 16.773437 31.811849 17.634111 32.121097 18.5 32.375 C 20.244781 32.869797 21.947905 33.125005 23.5625 33.125 C 25.20311 33.125005 26.440088 32.85938 27.3125 32.3125 C 28.184878 31.765631 28.624981 30.953132 28.625 29.9375 C 28.624981 29.026051 28.34894 28.338551 27.75 27.84375 C 27.164045 27.348969 25.958317 26.890636 24.1875 26.5 L 21.28125 25.875 C 18.364575 25.250013 16.22916 24.242201 14.875 22.875 C 13.952262 21.934359 13.350374 20.765606 13.0625 19.375 z M 25.40625 38.15625 C 25.285292 38.277208 25.137051 38.352629 25 38.4375 C 25.14191 38.353396 25.283988 38.278512 25.40625 38.15625 z M 23.15625 38.53125 C 23.250266 38.575838 23.339011 38.627192 23.4375 38.65625 C 23.340842 38.62664 23.248775 38.575381 23.15625 38.53125 z "
     id="rect3051" />
  <path
     style="font-size:40px;font-style:normal;font-weight:normal;line-height:125%;letter-spacing:0px;word-spacing:0px;fill:#b5d3eb;fill-opacity:1;stroke:none;font-family:Sans"
     d="M 24 9.28125 C 23.488762 9.28125 22.985487 9.4520128 22.59375 9.84375 L 13.0625 19.375 C 13.350374 20.765606 13.952262 21.934359 14.875 22.875 C 16.22916 24.242201 18.364575 25.250013 21.28125 25.875 L 24.1875 26.5 C 25.958317 26.890636 27.164045 27.348969 27.75 27.84375 C 28.34894 28.338551 28.624981 29.026051 28.625 29.9375 C 28.624981 30.953132 28.184878 31.765631 27.3125 32.3125 C 26.440088 32.85938 25.20311 33.125005 23.5625 33.125 C 21.947905 33.125005 20.244781 32.869797 18.5 32.375 C 17.634111 32.121097 16.773437 31.811849 15.875 31.4375 L 22 37.5625 L 22.59375 38.15625 C 22.677649 38.240149 22.780632 38.314215 22.875 38.375 C 22.887003 38.383357 22.894114 38.398188 22.90625 38.40625 C 22.989114 38.457025 23.068478 38.489623 23.15625 38.53125 C 23.680332 38.78122 24.284521 38.800633 24.8125 38.5625 C 24.880286 38.531927 24.935138 38.476119 25 38.4375 C 25.137051 38.352629 25.285292 38.277208 25.40625 38.15625 L 26.15625 37.40625 L 35.8125 27.75 C 35.606384 25.923663 34.926793 24.457487 33.8125 23.375 C 32.44529 22.046891 30.148417 21.057309 26.90625 20.40625 L 23.71875 19.75 C 22.1953 19.437519 21.148426 19.085956 20.5625 18.65625 C 19.989573 18.213561 19.68749 17.59377 19.6875 16.8125 C 19.68749 15.770856 20.109365 14.994815 20.96875 14.5 C 21.828113 14.005232 23.171862 13.750024 24.96875 13.75 C 26.3229 13.750024 27.757795 13.947941 29.28125 14.3125 C 29.548807 14.376536 29.823782 14.456371 30.09375 14.53125 L 25.40625 9.84375 C 25.014513 9.4520128 24.511238 9.28125 24 9.28125 z "
     id="text3053" />
</svg>

<svg xmlns="http://www.w3.org/2000/svg" viewBox="0 0 48 48"><defs><clipPath><g transform="translate(0,-1004.3622)"><path d="m -24 13 c 0 1.105 -0.672 2 -1.5 2 -0.828 0 -1.5 -0.895 -1.5 -2 0 -1.105 0.672 -2 1.5 -2 0.828 0 1.5 0.895 1.5 2 z" transform="matrix(15.333333,0,0,11.5,414.99999,878.8622)" fill="#1890d0"/></g></clipPath><clipPath><g transform="translate(0,-1004.3622)"><path d="m -24 13 c 0 1.105 -0.672 2 -1.5 2 -0.828 0 -1.5 -0.895 -1.5 -2 0 -1.105 0.672 -2 1.5 -2 0.828 0 1.5 0.895 1.5 2 z" transform="matrix(15.333333,0,0,11.5,414.99999,878.8622)" fill="#1890d0"/></g></clipPath><linearGradient id="linearGradient3776" x1="1" x2="47" gradientUnits="userSpaceOnUse" gradientTransform="matrix(0,-1,1,0,0,48)"><stop stop-color="#6f91ba" stop-opacity="1"/><stop offset="1" stop-color="#7c9bc0" stop-opacity="1"/></linearGradient></defs><g><path d="m 36.31 5 c 5.859 4.062 9.688 10.831 9.688 18.5 c 0 12.426 -10.07 22.5 -22.5 22.5 c -7.669 0 -14.438 -3.828 -18.5 -9.688 c 1.037 1.822 2.306 3.499 3.781 4.969 c 4.085 3.712 9.514 5.969 15.469 5.969 c 12.703 0 23 -10.298 23 -23 c 0 -5.954 -2.256 -11.384 -5.969 -15.469 c -1.469 -1.475 -3.147 -2.744 -4.969 -3.781 z m 4.969 3.781 c 3.854 4.113 6.219 9.637 6.219 15.719 c 0 12.703 -10.297 23 -23 23 c -6.081 0 -11.606 -2.364 -15.719 -6.219 c 4.16 4.144 9.883 6.719 16.219 6.719 c 12.703 0 23 -10.298 23 -23 c 0 -6.335 -2.575 -12.06 -6.719 -16.219 z" opacity="0.05"/><path d="m 41.28 8.781 c 3.712 4.085 5.969 9.514 5.969 15.469 c 0 12.703 -10.297 23 -23 23 c -5.954 0 -11.384 -2.256 -15.469 -5.969 c 4.113 3.854 9.637 6.219 15.719 6.219 c 12.703 0 23 -10.298 23 -23 c 0 -6.081 -2.364 -11.606 -6.219 -15.719 z" opacity="0.1"/><path d="m 31.25 2.375 c 8.615 3.154 14.75 11.417 14.75 21.13 c 0 12.426 -10.07 22.5 -22.5 22.5 c -9.708 0 -17.971 -6.135 -21.12 -14.75 a 23 23 0 0 0 44.875 -7 a 23 23 0 0 0 -16 -21.875 z" opacity="0.2"/></g><path d="M 1,24 C 1,11.297 11.297,1 24,1 36.703,1 47,11.297 47,24 47,36.703 36.703,47 24,47 11.297,47 1,36.703 1,24 z" fill="url(#linearGradient3776)" fill-opacity="1"/><g><path d="m 40.03 7.531 c 3.712 4.084 5.969 9.514 5.969 15.469 0 12.703 -10.297 23 -23 23 c -5.954 0 -11.384 -2.256 -15.469 -5.969 4.178 4.291 10.01 6.969 16.469 6.969 c 12.703 0 23 -10.298 23 -23 0 -6.462 -2.677 -12.291 -6.969 -16.469 z" opacity="0.1"/></g><path d="m 25 10.281 c -0.511 0 -1.015 0.171 -1.406 0.563 l -9.531 9.531 -3.219 3.219 c -0.783 0.783 -0.783 2.029 0 2.813 l 6.03 6.03 6.125 6.125 0.594 0.594 c 0.084 0.084 0.187 0.158 0.281 0.219 0.012 0.008 0.019 0.023 0.031 0.031 0.083 0.051 0.162 0.083 0.25 0.125 0.094 0.045 0.183 0.096 0.281 0.125 0.451 0.138 0.94 0.102 1.375 -0.094 0.068 -0.031 0.123 -0.086 0.188 -0.125 0.137 -0.085 0.285 -0.16 0.406 -0.281 l 0.75 -0.75 9.656 -9.656 2.344 -2.344 c 0.783 -0.783 0.783 -2.029 0 -2.813 l -8.06 -8.06 -4.688 -4.688 c -0.392 -0.392 -0.895 -0.563 -1.406 -0.563 z" fill="#000" fill-rule="nonzero" stroke="none" fill-opacity="0.118"/><path d="m 24.969 13.75 c -1.797 0 -3.141 0.255 -4 0.75 c -0.859 0.495 -1.281 1.271 -1.281 2.313 c 0 0.781 0.302 1.401 0.875 1.844 c 0.586 0.43 1.633 0.781 3.156 1.094 l 3.188 0.656 c 3.242 0.651 5.539 1.641 6.906 2.969 c 1.114 1.082 1.794 2.549 2 4.375 l 2.344 -2.344 c 0.783 -0.783 0.783 -2.029 0 -2.813 l -8.06 -8.06 c -0.27 -0.075 -0.545 -0.155 -0.813 -0.219 c -1.523 -0.365 -2.958 -0.562 -4.313 -0.563 z m -11.906 5.625 l -3.219 3.219 c -0.783 0.783 -0.783 2.029 0 2.813 l 6.03 6.03 c 0.898 0.374 1.759 0.684 2.625 0.938 c 1.745 0.495 3.448 0.75 5.063 0.75 c 1.641 0 2.878 -0.266 3.75 -0.813 c 0.872 -0.547 1.312 -1.359 1.313 -2.375 c 0 -0.911 -0.276 -1.599 -0.875 -2.094 c -0.586 -0.495 -1.792 -0.953 -3.563 -1.344 l -2.906 -0.625 c -2.917 -0.625 -5.05 -1.633 -6.406 -3 c -0.923 -0.941 -1.525 -2.109 -1.813 -3.5 z m 12.344 18.781 c -0.121 0.121 -0.269 0.196 -0.406 0.281 c 0.142 -0.084 0.284 -0.159 0.406 -0.281 z m -2.25 0.375 c 0.094 0.045 0.183 0.096 0.281 0.125 c -0.097 -0.03 -0.189 -0.081 -0.281 -0.125 z" fill="#00578e" fill-rule="nonzero" stroke="none" fill-opacity="1"/><path d="m 24 9.281 c -0.511 0 -1.015 0.171 -1.406 0.563 l -9.531 9.531 c 0.288 1.391 0.89 2.559 1.813 3.5 c 1.354 1.367 3.49 2.375 6.406 3 l 2.906 0.625 c 1.771 0.391 2.977 0.849 3.563 1.344 c 0.599 0.495 0.875 1.182 0.875 2.094 c 0 1.016 -0.44 1.828 -1.313 2.375 c -0.872 0.547 -2.109 0.813 -3.75 0.813 c -1.615 0 -3.318 -0.255 -5.063 -0.75 c -0.866 -0.254 -1.727 -0.563 -2.625 -0.938 l 6.125 6.125 l 0.594 0.594 c 0.084 0.084 0.187 0.158 0.281 0.219 c 0.012 0.008 0.019 0.023 0.031 0.031 c 0.083 0.051 0.162 0.083 0.25 0.125 c 0.524 0.25 1.128 0.269 1.656 0.031 c 0.068 -0.031 0.123 -0.086 0.188 -0.125 c 0.137 -0.085 0.285 -0.16 0.406 -0.281 l 0.75 -0.75 l 9.656 -9.656 c -0.206 -1.826 -0.886 -3.293 -2 -4.375 c -1.367 -1.328 -3.664 -2.318 -6.906 -2.969 l -3.188 -0.656 c -1.523 -0.312 -2.57 -0.664 -3.156 -1.094 c -0.573 -0.443 -0.875 -1.062 -0.875 -1.844 c 0 -1.042 0.422 -1.818 1.281 -2.313 c 0.859 -0.495 2.203 -0.75 4 -0.75 c 1.354 0 2.789 0.198 4.313 0.563 c 0.268 0.064 0.543 0.144 0.813 0.219 l -4.688 -4.688 c -0.392 -0.392 -0.895 -0.563 -1.406 -0.563 z" fill="#b5d3eb" stroke="none" fill-opacity="1"/></svg>
